X:1
T:Title
%%score 1 2 3
L:1/8
Q:1/4=180
M:6/4
K:G
V:1 treble nm="Grand Piano"
V:2 bass nm="Grand Piano, Melody"
V:3 bass nm="Grand Piano"
V:1
 B4 B2 d4 e2 | d4 B2 B6 | B4 d2 B4 B2 | e4 d2 B6 | e4 e2 d4 e2 | B4 B2 d6 | B4 B2 d4 B2 | %7
 B4 d2 e6 | B4 e2 d4 d2 | B4 B2 d6 | e4 e2 d4 B2 | e4 d2 B6 | B4 e2 d4 d2 | B4 B2 d6 | %14
 e4 e2 d4 B2 | e4 d2 B6- | B6 z6 |] %17
V:2
 B,4 B,2 A,4 G,2 | F,4 E,2 B,6 | D4 D2 D4 ED | B,4 A,2 B,6 | E4 B,2 D4 B,2 | B,2 A,2 G,2 A,6 | %6
 G,4 B,2[K:treble] G4 F2 | E4 D2 E6 | G4 E2 D2 E2 F2 | G4[K:bass] B,2 A,6 | B,4 G,2 D4 B,2 | %11
 E4 D2 E6 | G4 E2 D2 E2 F2 | G4[K:bass] B,2 A,6 | B,4 G,2 D4[K:treble] B,2 | E4 D2 E6- | E6 z6 |] %17
V:3
 E,4 E,2 D,4 G,2 | F,4 E,2 B,,6 | G,4 G,2 G,4 B,2 | E,4 F,2 E,6 | E,4 E,2 G,4 E,2 | E,4 G,2 D,6 | %6
 G,4 [E,B,]2 G,4 F,2 | E,4 B,,2 E,6 | G,4 B,2 B,4 A,2 | G,4 G,2 D,6 | E,4 G,2 D,4 E,2 | %11
 B,,4 B,,2 E,6 | G,4 B,2 B,4 A,2 | G,4 G,2 D,6 | E,4 G,2 D,4 E,2 | B,,4 B,,2 E,6- | E,6 z6 |] %17

